X:151
T:Small is my inclination to Sleep
T:'S beag mo shunnd ris a' chadal
R:Slow Air
S:Simon Fraser Collection
N:No.75
O:Scottish
M:3/4
L:1/8
Q:1/4=130
K:E Minor
g>a|b2 b2 a>g|f2 dz g>f|e2d2e2|G2Ez d>e|g2 ez B>A|e2 d2 B>A|G3 z||
G>A|B2B2 B>A|B2 ez d>c|B2G2 A>G|F2Ez e>f|g2 g2 f>e|e2 B2 B>^A|
B3z||G>A|B2 B2 B>A|B2ez d>c|B2 G2 A>G|F2Ez g>a|b2b2a>g|b2g2 f>e|
e3 z||

